fonts/editor-para.svg

<?xml version="1.0" encoding="UTF-8" standalone="no"?><!DOCTYPE svg PUBLIC "-//W3C//DTD SVG 1.1//EN" "http://www.w3.org/Graphics/SVG/1.1/DTD/svg11.dtd"><svg width="200px" height="200px" version="1.1" xmlns="http://www.w3.org/2000/svg" xmlns:xlink="http://www.w3.org/1999/xlink" xml:space="preserve" xmlns:serif="http://www.serif.com/" style="fill-rule:evenodd;clip-rule:evenodd;stroke-linejoin:round;stroke-miterlimit:1.41421;"><path d="M48.966,166.622l0,-133.244l43.172,0c16.36,0 27.024,0.667 31.993,2c7.635,1.999 14.027,6.347 19.178,13.042c5.15,6.696 7.725,15.346 7.725,25.949c0,8.18 -1.484,15.058 -4.453,20.632c-2.969,5.575 -6.741,9.952 -11.316,13.134c-4.575,3.181 -9.225,5.286 -13.952,6.316c-6.422,1.273 -15.723,1.909 -27.902,1.909l-17.542,0l0,50.262l-26.903,0Zm26.903,-110.703l0,37.81l14.724,0c10.604,0 17.693,-0.697 21.268,-2.091c3.575,-1.393 6.377,-3.575 8.407,-6.544c2.03,-2.969 3.045,-6.423 3.045,-10.361c0,-4.848 -1.424,-8.847 -4.272,-11.998c-2.848,-3.15 -6.453,-5.12 -10.816,-5.907c-3.211,-0.606 -9.664,-0.909 -19.359,-0.909l-12.997,0Z" style="fill-rule:nonzero;"/></svg>

<?xml version="1.0" encoding="UTF-8" standalone="no"?>
<!DOCTYPE svg PUBLIC "-//W3C//DTD SVG 1.1//EN" "http://www.w3.org/Graphics/SVG/1.1/DTD/svg11.dtd">
<svg width="200px" height="200px" version="1.1" xmlns="http://www.w3.org/2000/svg" xmlns:xlink="http://www.w3.org/1999/xlink" xml:space="preserve" xmlns:serif="http://www.serif.com/" style="fill-rule:evenodd;clip-rule:evenodd;stroke-linejoin:round;stroke-miterlimit:1.41421;">
    <path d="M48.966,166.622L48.966,33.378L92.138,33.378C108.498,33.378 119.162,34.045 124.131,35.378C131.766,37.377 138.158,41.725 143.309,48.42C148.459,55.116 151.034,63.766 151.034,74.369C151.034,82.549 149.55,89.427 146.581,95.001C143.612,100.576 139.84,104.953 135.265,108.135C130.69,111.316 126.04,113.421 121.313,114.451C114.891,115.724 105.59,116.36 93.411,116.36L75.869,116.36L75.869,166.622L48.966,166.622ZM75.869,55.919L75.869,93.729L90.593,93.729C101.197,93.729 108.286,93.032 111.861,91.638C115.436,90.245 118.238,88.063 120.268,85.094C122.298,82.125 123.313,78.671 123.313,74.733C123.313,69.885 121.889,65.886 119.041,62.735C116.193,59.585 112.588,57.615 108.225,56.828C105.014,56.222 98.561,55.919 88.866,55.919L75.869,55.919Z" style="fill-rule:nonzero;"/>
</svg>
